X:1
T:Title
%%score { ( 1 3 ) | ( 2 4 ) }
L:1/8
Q:1/4=90
M:6/8
K:F
V:1 treble nm="Grand Piano"
V:3 treble 
V:2 bass 
V:4 bass 
V:1
 CFA cdA | c3 .c3 | [Ec][EB][EA] [EG][EA][EB] | A6 | CFA cdA | c3 .c3 | c=BA Bcd | [Ec]6 | %8
w: Adam~Geibel * * * * *||||||||
 BBB [^Fd][FA][Fc] | B3 .B3 | BBB [^Fd][FA][Fc] | [GB]6 | [EG][EG][EA] [EB]AG | c3 d3 | %14
w: ||||||
 ecA G[=B,F][B,D] |[M:11/16] C/-C/-C-<C[Ec]3/2 z |[M:1/8] c |[M:3/4] [Dd]4 z2 | E4 z2 | %19
w: |||||
 [Ece][Bd] [Ac][Bd] cB | [FA]4[K:bass] z2[K:treble] | [Dd]4 z2 | z C CG z G | ed ^cd A=B | c4 z2 | %25
w: ||||||
 ^C3 G z F | E3 C z C | [Ec][Ec] [Ec][Fd] [Fc][Fd] | [Ee]6 | fe d c2 ^c | e2 d [_EAc]2 [DGB] | %31
w: ||||||
[M:7/8] [CFA]2 C [B,EG]3 [A,F] |[M:3/4] [A,F]6 |] %33
w: ||
V:2
 [F,A,][F,A,C][F,CF] [F,A,F][F,A,F][F,CF] | [F,A,F]3 .[F,A,F]3 | %2
 [C,G,][C,G,][C,G,] [C,C][C,C][C,C] | [F,CF]6 | %4
 [F,A,][F,A,C][K:treble][F,CF] [F,A,F][F,A,F][F,CF] | [F,A,F]3 .[F,A,F]3 | %6
 [G,CE][G,CE][G,CE] [G,DF][G,CF][G,=B,F] | [C,C]6 | [G,DG][G,DG][G,DG][K:bass] [D,D][D,D][D,D] | %9
 [G,DG]3 .[G,DG]3 | [G,DG][G,DG][G,DG][K:bass] [D,D][D,D][D,D] | [G,D]6 | %12
 [C,C][C,C][C,C] [C,C][K:treble][CE][B,CE] | [A,CF]3 [_A,C^F]3 | %14
 [G,CG][K:bass][G,CE][G,CE] [G,=B,D][G,,G,][G,,F,] | %15
[M:11/16] [C,E,]/-[C,E,]/-[C,E,]-<[C,E,][C,B,]3/2 z |[M:1/8] C | %17
[M:3/4] F,,[C,F,] [C,F,][C,F,A,C] z2 | G,,[C,E,] [C,E,][C,E,B,] z C | %19
 [C,,C,][C,E,B,] .[C,E,B,]2[K:treble] AG | F,,C, C,C, z C | F,,[C,F,] [C,F,][C,F,A,C] z2 | %22
 G,,[E,G,] [E,G,][E,G,C] z2 | G,,[F,G,=B,] [F,G,B,] [F,G,B,]3 | C,[E,G,] [E,G,][E,G,] z [C,,C,] | %25
 [D,,^C,]3 [G,,G,] z [F,,F,] | [E,,E,]3 [C,,C,] z C, | [C,G,][C,G,] [C,G,][C,_A,] [C,A,][C,A,] | %28
 [C,G,]3 C,2[K:treble] [B,CG] | [A,CF][A,CF] [A,CF] [A,F]2 [A,EG] | [^CG]2 [DF][K:bass] ^F,2 G, | %31
[M:7/8] C,2 C, C,3 F, |[M:3/4] F,6 |] %33
V:3
 x6 | x6 | x6 | x6 | x6 | x6 | x6 | x6 | x6 | x6 | x6 | x6 | x6 | x6 | x6 |[M:11/16] x11/2 | %16
[M:1/8] x |[M:3/4] z A, A,c z F | z B, B,C z c | x6 | z[K:bass] [F,A,] [F,A,][F,A,] z[K:treble] c | %21
 z A, A,c z F | E4 z2 | x6 | z C CC z C | x6 | x6 | x6 | z2 z C2 e | x6 | x6 |[M:7/8] x7 | %32
[M:3/4] x6 |] %33
V:4
 x6 | x6 | x6 | x6 | x2[K:treble] x4 | x6 | x6 | x6 | x3[K:bass] x3 | x6 | x3[K:bass] x3 | x6 | %12
 x4[K:treble] x2 | x6 | x[K:bass] x5 |[M:11/16] x11/2 |[M:1/8] x |[M:3/4] x6 | x6 | %19
 z2 z [C,E,B,]3[K:treble] | x6 | x6 | x6 | x6 | x6 | x6 | x6 | x6 | x5[K:treble] x | x6 | %30
 B,4[K:bass] z2 |[M:7/8] x7 |[M:3/4] x6 |] %33

